packages/styles/icons/camera-disabled-icon.svg

<svg fill="currentColor" height="16" viewBox="0 0 16 16" width="16" xmlns="http://www.w3.org/2000/svg"><path d="m1.35355.646447c-.19526-.195263-.511841-.195263-.707103 0-.195263.195262-.195263.511843 0 .707103l13.999953 14.00005c.1953.1952.5119.1952.7072 0 .1952-.1953.1952-.5119 0-.7072l-4.3536-4.3535v-5.7929c0-.82843-.6716-1.5-1.5-1.5h-5.79289z"/><path d="m0 4.5c0-.6315.390238-1.17185.942719-1.39307l9.532681 9.53267c-.2623.2247-.60298.3604-.9754.3604h-8c-.828427 0-1.5-.6716-1.5-1.5z"/><path d="m15.2 3.6-2.8 2.1c-.2518.18885-.4.48524-.4.8v3c0 .31476.1482.6111.4.8l2.8 2.1c.3296.2472.8.012.8-.4v-8c0-.41202-.4704-.64721-.8-.4z"/></svg>

<svg width="16" height="16" viewBox="0 0 16 16" fill="none" xmlns="http://www.w3.org/2000/svg">
<path d="M1.35355 0.646447C1.15829 0.451184 0.841709 0.451184 0.646447 0.646447C0.451184 0.841709 0.451184 1.15829 0.646447 1.35355L14.6464 15.3536C14.8417 15.5488 15.1583 15.5488 15.3536 15.3536C15.5488 15.1583 15.5488 14.8417 15.3536 14.6464L11 10.2929V4.5C11 3.67157 10.3284 3 9.5 3H3.70711L1.35355 0.646447Z" fill="black"/>
<path d="M0 4.5C0 3.8685 0.390238 3.32815 0.942719 3.10693L10.4754 12.6396C10.2131 12.8643 9.87242 13 9.5 13H1.5C0.671573 13 0 12.3284 0 11.5V4.5Z" fill="black"/>
<path d="M15.2 3.6L12.4 5.7C12.1482 5.88885 12 6.18524 12 6.5V9.5C12 9.81476 12.1482 10.1111 12.4 10.3L15.2 12.4C15.5296 12.6472 16 12.412 16 12V4C16 3.58798 15.5296 3.35279 15.2 3.6Z" fill="black"/>
</svg>
